X:1
T:Lootering
C:Sarah Gowan 2005
N:A tune made after Hurricane Katrina
M:6/8
K:Em
"B7"B[Ac]B B[Ac]B|[A2c2]B A2B|"C"e2dc2B|"Am"c2B A2c|
"B7"B[Ac]B B[Ac]B|"Am"[A2c2]B A3|1"C"G3"Am"A3|"B7"F3-F3:|2"C"G3"B7"F3|"Em"E3-E2"B7"B,||
|:"C"EFG GFE |"Em"G2F E2z|"C"{B}c3"B7"B2z|"C"{B}c3"B7"B2z|
"C"EFG GFE|1"Em"G2 FE2B,|"Em"E3"D"F3|"B7"^D6:|2"Em"G2AB2z|"Em"B3"B7"B,3|B,4z2|]
W: © 2005 Sarah Gowan  |  www.sarahgowan.com  |  All rights reserved.
